X:1
T:Title
%%score { ( 1 3 ) | ( 2 4 ) }
L:1/8
Q:1/4=108
M:4/4
K:D
V:1 treble nm="Grand Piano"
V:3 treble 
V:2 bass 
V:4 bass 
V:1
 [FA]2 [FA]>[GB] [FA]>[EG] [DF]2 | z4 [Fd]4 | B2 d>B [FA]2 [DF]2 | [EG]2 [DF]2 [CE]4 | %4
w: Chas.~H.~Gabriel * * * * *||||
 [CE]2 [EA]>B c>B A2 | B2 [^Ge]>d c4 | [FB]2 [FB]>[Fc] [Fd]2 [FB]2 |[M:3/4] [EA]2 [D^G]2 [CA]2 | %8
w: ||||
[M:1/4] Bc |[M:4/4] [Fd]2 [Fd]>[Ge] [Fd]>[FB] [FA]2 | [DF]>[EG] [FA]>[GB] [FA]4 | B2 B>c B>^A B2 | %12
w: ||||
 [^Ge]>[Ge] [Gd]>[Gd] [=Gc]4 | [Fd]2 [Fd]>[Ge] [Fd]>[GB] [FA]2 | [DF]>[DF] [EG]>[FA] B4 | %15
w: |||
 A>A .A2 [Ad]>[Ad] .[Ad]2 | [Gd]2 [Gc]2 [Fd]4 |] %17
w: ||
V:2
 [D,D]2 [D,D]>[D,D] [D,D]>[D,A,] [D,A,]2 | [D,A,]2 [D,A,]>[D,A,] A,2 z2 | %2
 [G,DG]2 [G,B,G]>[G,DG][K:bass] [D,D]2 [D,A,]2 | [C,A,]2 [D,A,]2 [A,,A,]4 | %4
 [A,,A,]2 [C,A,]>[E,^G,E] [A,E]>[A,DE] [A,CE]2 | [^G,B,E]2 [E,B,]>[G,B,E] [A,E]4 | %6
 [D,A,]2 [D,A,]>[C,^A,] [B,,B,]2 [D,B,]2 |[M:3/4] [E,C]2 [E,B,]2 [A,,A,]2 |[M:1/4] [A,D][A,E] | %9
[M:4/4] [D,A,]2 [D,A,]>[D,A,] [D,A,]>[D,D] [D,D]2 | [D,A,]>[D,A,] [D,D]>[D,D] [D,D]4 | %11
 [G,DG]2 [G,DG]>[G,DG] [G,DG]>[G,DG] [G,DG]2 | [E,D]>[E,D] [E,B,]>[E,E] [A,E]4 | %13
 [D,D]2 [D,A,]>[D,A,] [D,A,]>[D,D] [D,D]2 | [D,A,]>[D,A,] [D,A,]>[D,D][K:treble] [G,DG]4 | %15
 [A,DF]>[A,DF] .[A,DF]2[K:bass] [F,D]>[F,D] .[F,D]2 | [E,A,]2 [A,,A,]2 [D,A,]4 |] %17
V:3
 x8 | [Fd]2 [Fd]>[Ge] z2 D2 | x8 | x8 | x8 | x8 | x8 |[M:3/4] x6 |[M:1/4] x2 |[M:4/4] x8 | x8 | %11
 x8 | x8 | x8 | x8 | x8 | x8 |] %17
V:4
 x8 | z4 D,4 | x4[K:bass] x4 | x8 | x8 | x8 | x8 |[M:3/4] x6 |[M:1/4] x2 |[M:4/4] x8 | x8 | x8 | %12
 x8 | x8 | x4[K:treble] x4 | x4[K:bass] x4 | x8 |] %17

